img/svg/caret-d.svg

<svg xmlns="http://www.w3.org/2000/svg" width="7" height="4" viewBox="0 0 7 4"><desc>Created with Avocode</desc><path d="M3.5 4c.12 0 .25-.05.35-.14l3-3c.2-.19.2-.5 0-.69-.19-.19-.5-.19-.69 0l-2.66 2.65-2.66-2.65c-.2-.19-.51-.19-.7 0-.19.19-.19.5 0 .69l3.01 3c.1.09.22.14.35.14z" fill="#999"/></svg>

<?xml version="1.0" encoding="UTF-8" standalone="no"?>
<!-- Generator: Avocode 1.1.1 - http://avocode.com -->
<svg xmlns="http://www.w3.org/2000/svg" xmlns:xlink="http://www.w3.org/1999/xlink" width="7" height="4" viewBox="0 0 7 4">
    <desc>Created with Avocode</desc>
    <path d="M 3.5 4 C 3.62 4, 3.75 3.95, 3.85 3.86 L 6.85 0.86 C 7.05 0.67, 7.05 0.36, 6.85 0.17 C 6.66 -0.02, 6.35 -0.02, 6.16 0.17 L 3.5 2.82 L 0.84 0.17 C 0.64 -0.02, 0.33 -0.02, 0.14 0.17 C -0.05 0.36, -0.05 0.67, 0.14 0.86 L 3.15 3.86 C 3.25 3.95, 3.37 4, 3.5 4 Z" fill="#999999" />
</svg>
